packages/flat-components/src/components/LoginPage/LoginChannel/icons/github.svg

<?xml version="1.0" encoding="UTF-8"?>
<svg width="24px" height="24px" viewBox="0 0 24 24" version="1.1" xmlns="http://www.w3.org/2000/svg" xmlns:xlink="http://www.w3.org/1999/xlink">
    <title>矩形备份 24</title>
    <g id="Flat-单窗口" stroke="none" stroke-width="1" fill="none" fill-rule="evenodd">
        <g id="登录" transform="translate(-662.000000, -403.000000)" fill="#FFFFFF" fill-rule="nonzero">
            <g id="编组-18" transform="translate(584.000000, 161.000000)">
                <g id="编组-16" transform="translate(0.000000, 176.000000)">
                    <g id="编组-4备份-3" transform="translate(78.000000, 66.000000)">
                        <path d="M3,12.2347834 C3,10.9835373 3.23748007,9.78710802 3.7118777,8.64490039 C4.18625776,7.50269275 4.82495785,6.51957851 5.62799555,5.69553964 C6.43043559,4.87211405 7.3885121,4.21671057 8.5021899,3.72931117 C9.60758142,3.24440615 10.7978295,2.9962469 11.9999848,3 C13.218762,3 14.3846819,3.24313834 15.4977796,3.7305197 C16.6114574,4.21732386 17.5695339,4.87272734 18.371974,5.69676621 C19.1750117,6.5201918 19.8137293,7.50332407 20.2880918,8.64612696 C20.7608894,9.7799587 21.0031282,11.0009036 21,12.2341701 C21,14.242102 20.4286111,16.0486599 19.2859119,17.6544209 C18.1437751,19.2595868 16.6759163,20.3749722 14.8828803,21 C14.7888199,21 14.7185602,20.9821426 14.6721189,20.9463736 C14.6250799,20.9106227 14.5983612,20.8742765 14.5925604,20.8379304 C14.5856755,20.7842162 14.5827668,20.7300439 14.5838593,20.6758788 C14.5744388,20.6592458 14.5685056,20.640778 14.5664394,20.6216571 L14.5664394,18.2949613 C14.5664394,17.5620854 14.3144398,16.9364624 13.8104407,16.4192825 C15.1581005,16.1785681 16.1660988,15.6649598 16.8338555,14.8772851 C17.5015946,14.0895924 17.8360354,13.1362766 17.8360354,12.0178969 C17.8360354,10.9716143 17.5079754,10.0635734 16.8512754,9.29436943 C17.085855,8.52455218 17.0446344,7.71303154 16.728756,6.85921226 C16.4000984,6.83536629 16.043017,6.89258219 15.6563164,7.03080585 C15.2695984,7.16902952 14.982759,7.29832447 14.7946382,7.41807743 C14.60766,7.53844367 14.4375216,7.65285744 14.2854008,7.76128266 C13.6054801,7.56883736 12.8465634,7.47231709 12.0092836,7.47231709 C11.1708084,7.47231709 10.4183077,7.56883736 9.74998856,7.76128266 C9.62108839,7.66478042 9.47128786,7.55990865 9.30174714,7.44549489 C9.13159117,7.33109916 8.83605066,7.19287549 8.41393028,7.03080585 C7.9923724,6.86814097 7.61149023,6.79902012 7.27121347,6.82346134 C6.94315348,7.68920361 6.90831369,8.5126292 7.16611403,9.29435139 C6.52161317,10.0641686 6.19935395,10.9716143 6.19935395,12.0178789 C6.19935395,13.1362586 6.52741395,14.0866162 7.18355151,14.8677431 C7.83967149,15.6494833 8.84766978,16.1666451 10.2069487,16.4192825 C9.85897223,16.7620238 9.61498315,17.2006926 9.50436984,17.6824517 C8.50799067,17.9344758 7.81063247,17.7539355 7.41231284,17.1402354 C6.67373401,16.0343739 6.01179568,15.6375604 5.42593534,15.9503719 C5.34349408,16.0343739 5.3556757,16.1213702 5.46077513,16.211938 C5.56645464,16.3019106 5.72437624,16.4222588 5.93573526,16.5724235 C6.14649662,16.7231654 6.30445339,16.8882112 6.41011532,17.0687336 C6.42173444,17.0925795 6.45423633,17.180153 6.50709367,17.3303177 C6.5575741,17.4753289 6.61022673,17.6195342 6.66503285,17.7628822 C6.71729253,17.9011059 6.81715369,18.0548421 6.96405383,18.2228461 C7.11037389,18.3914815 7.28051228,18.5326995 7.47387133,18.6470952 C7.66723037,18.7608957 7.93373187,18.845511 8.27341099,18.8997326 C8.6130901,18.953341 8.99979062,18.9563353 9.43353012,18.9086613 L9.43353012,20.7211717 C9.43353012,20.7390471 9.43062973,20.7688456 9.42482896,20.8117395 C9.41902819,20.8534429 9.40740907,20.8832413 9.38998917,20.9011168 C9.37256928,20.9195875 9.34876854,20.9374629 9.31914945,20.9559337 C9.28425965,20.9752195 9.24494233,20.9844802 9.20534886,20.9827378 C9.15830988,20.9827378 9.09966935,20.9767854 9.02940971,20.9648804 C7.2479928,20.3273343 5.79811635,19.2119309 4.67865536,17.618688 C3.55972171,16.0254452 3,14.2314056 3,12.2353967 L3,12.2347834 Z" id="路径"></path>
                    </g>
                </g>
            </g>
        </g>
    </g>
</svg>

<svg width="24" height="24" xmlns="http://www.w3.org/2000/svg"><path d="M3 12.235c0-1.251.237-2.448.712-3.59.474-1.142 1.113-2.125 1.916-2.95A9.005 9.005 0 0 1 8.502 3.73 8.636 8.636 0 0 1 12 3c1.219 0 2.385.243 3.498.73a8.986 8.986 0 0 1 2.874 1.967c.803.823 1.442 1.806 1.916 2.95A9.265 9.265 0 0 1 21 12.233c0 2.008-.571 3.815-1.714 5.42-1.142 1.606-2.61 2.721-4.403 3.346-.094 0-.164-.018-.21-.054-.048-.035-.075-.072-.08-.108a1.1 1.1 0 0 1-.01-.162.14.14 0 0 1-.017-.054v-2.327a2.59 2.59 0 0 0-.756-1.876c1.348-.24 2.356-.754 3.024-1.542.668-.787 1.002-1.74 1.002-2.86 0-1.045-.328-1.953-.985-2.723.235-.77.194-1.581-.122-2.435-.329-.024-.686.034-1.073.172-.386.138-.673.267-.861.387a13.1 13.1 0 0 0-.51.343c-.68-.192-1.438-.289-2.276-.289-.838 0-1.59.097-2.259.29a11.396 11.396 0 0 0-.448-.317c-.17-.114-.466-.252-.888-.414-.422-.163-.803-.232-1.143-.208-.328.866-.363 1.69-.105 2.471-.644.77-.967 1.678-.967 2.724 0 1.118.328 2.069.985 2.85.656.781 1.664 1.299 3.023 1.551a2.584 2.584 0 0 0-.703 1.263c-.996.252-1.693.072-2.092-.542-.738-1.106-1.4-1.502-1.986-1.19-.083.084-.07.171.035.262.105.09.263.21.475.36.21.151.368.316.474.497.012.024.044.111.097.261.05.145.103.29.158.433.052.138.152.292.3.46.145.168.316.31.509.424.193.114.46.199.8.253.34.053.726.056 1.16.009v1.812a.78.78 0 0 1-.01.09.157.157 0 0 1-.034.09.357.357 0 0 1-.07.055.216.216 0 0 1-.115.027c-.047 0-.105-.006-.176-.018-1.781-.638-3.23-1.753-4.35-3.346C3.559 16.025 3 14.23 3 12.235Z" fill="#FFF"/></svg>
